X:200
T:The Howboy (Hawboy?)
O:No 200 Page 99 William Clarke of Feltwell
M:2/4
L:1/8
K:G
(EG) (AB)|c2cA|d2dB|cAG2|EG AB|c2ec|(BA)( Bd)|AAA2::(ag) (fe)|(fg) af|(ed) cB|cAG2|(ag) fe|(fg) af|(ed) cB|(A2A2):|

